;FLAVOR:Marlin
;TIME:16502
;Filament used: 14.9212m
;Layer height: 0.2
;MINX:29.5
;MINY:66.5
;MINZ:0.2
;MAXX:205.499
;MAXY:168.497
;MAXZ:5
;TARGET_MACHINE.NAME:Creality Ender-3
;Generated with Cura_SteamEngine 5.10.0
M140 S50
M105
M190 S50
M104 S200
M105
M109 S200
; Ender 3 Custom Start G-code
G92 E0 ; Reset Extruder
G28 ; Home all axes
G1 Z2.0 F3000 ; Move Z Axis up little to prevent scratching of Heat Bed
G1 X0.1 Y20 Z0.3 F5000.0 ; Move to start position
G1 X0.1 Y200.0 Z0.3 F1500.0 E15 ; Draw the first line
G1 X0.4 Y200.0 Z0.3 F5000.0 ; Move to side a little
G1 X0.4 Y20 Z0.3 F1500.0 E30 ; Draw the second line
G92 E0 ; Reset Extruder
G1 Z2.0 F3000 ; Move Z Axis up little to prevent scratching of Heat Bed
G1 X5 Y20 Z0.3 F5000.0 ; Move over to prevent blob squish
M82 ;absolute extrusion mode
G92 E0
G92 E0
G1 F2700 E-5
;LAYER_COUNT:25
;LAYER:0
M107
G0 F6000 X38.169 Y68.284 Z0.2
;TYPE:SKIRT
G1 F2700 E0
G1 F1200 X38.906 Y67.937 E0.02709
G1 X39.588 Y67.647 E0.05174
G1 X40.928 Y67.177 E0.09897
G1 X41.415 Y67.04 E0.1158
G1 X42.166 Y66.856 E0.14152
G1 X43.553 Y66.63 E0.18826
G1 X44.223 Y66.566 E0.21064
G1 X44.977 Y66.521 E0.23577
G1 X45.978 Y66.5 E0.26907
G1 X188.801 Y66.5 E5.01938
G1 X189.912 Y66.514 E5.05633
G1 X190.686 Y66.551 E5.08211
G1 X191.352 Y66.615 E5.10436
G1 X191.847 Y66.679 E5.12096
G1 X192.799 Y66.844 E5.1531
G1 X193.821 Y67.104 E5.18817
G1 X195.05 Y67.508 E5.2312
G1 X195.558 Y67.709 E5.24937
G1 X196.44 Y68.106 E5.28154
G1 X197.066 Y68.422 E5.30486
G1 X198.158 Y69.059 E5.34691
G1 X198.522 Y69.303 E5.36149
G1 X199.237 Y69.826 E5.39095
G1 X199.718 Y70.209 E5.4114
G1 X200.375 Y70.778 E5.44031
G1 X200.899 Y71.288 E5.46463
G1 X201.184 Y71.582 E5.47825
G1 X201.943 Y72.46 E5.51685
G1 X202.277 Y72.895 E5.53509
G1 X202.84 Y73.704 E5.56787
G1 X203.261 Y74.371 E5.59411
G1 X203.724 Y75.185 E5.62525
G1 X204.071 Y75.927 E5.6525
G1 X204.389 Y76.68 E5.67968
G1 X204.712 Y77.553 E5.71064
G1 X204.904 Y78.212 E5.73347
G1 X205.071 Y78.867 E5.75596
G1 X205.335 Y80.294 E5.80422
G1 X205.397 Y80.825 E5.822
G1 X205.467 Y81.851 E5.85621
G1 X205.494 Y83.293 E5.90418
G1 X205.499 Y151.952 E8.18779
G1 X205.486 Y152.853 E8.21776
G1 X205.46 Y153.43 E8.23697
G1 X205.425 Y153.934 E8.25377
G1 X205.229 Y155.377 E8.30221
G1 X205.117 Y155.918 E8.32058
G1 X204.973 Y156.527 E8.34139
G1 X204.867 Y156.925 E8.35509
G1 X204.484 Y158.077 E8.39547
G1 X204.281 Y158.587 E8.41373
G1 X203.909 Y159.411 E8.4438
G1 X203.577 Y160.067 E8.46825
G1 X202.882 Y161.245 E8.51374
G1 X202.55 Y161.732 E8.53335
G1 X201.952 Y162.529 E8.56649
G1 X201.724 Y162.806 E8.57842
G1 X201.307 Y163.28 E8.59942
G1 X201.032 Y163.575 E8.61283
G1 X200.451 Y164.155 E8.64014
G1 X199.496 Y164.978 E8.68207
G1 X199.076 Y165.299 E8.69965
G1 X198.253 Y165.871 E8.73298
G1 X197.622 Y166.266 E8.75774
G1 X196.782 Y166.74 E8.78982
G1 X196.116 Y167.052 E8.81429
G1 X195.355 Y167.376 E8.84179
G1 X194.449 Y167.713 E8.87395
G1 X193.541 Y167.972 E8.90535
G1 X192.589 Y168.187 E8.93781
G1 X191.994 Y168.292 E8.95791
G1 X190.884 Y168.429 E8.99511
G1 X190.191 Y168.472 E9.0182
G1 X189.303 Y168.497 E9.04775
G1 X45.701 Y168.493 E13.82397
G1 X44.98 Y168.481 E13.84795
G1 X43.994 Y168.421 E13.88081
G1 X43.541 Y168.372 E13.89596
G1 X42.579 Y168.223 E13.92834
G1 X42.222 Y168.153 E13.94044
G1 X41.562 Y167.999 E13.96298
G1 X41.104 Y167.876 E13.97875
G1 X39.949 Y167.492 E14.01924
G1 X39.315 Y167.24 E14.04193
G1 X38.228 Y166.736 E14.08178
G1 X37.65 Y166.427 E14.10358
G1 X36.552 Y165.751 E14.14646
G1 X36.097 Y165.43 E14.16498
G1 X35.437 Y164.924 E14.19265
G1 X35.125 Y164.666 E14.20611
G1 X34.624 Y164.223 E14.22835
G1 X34.07 Y163.683 E14.25409
G1 X33.8 Y163.4 E14.26709
G1 X33.029 Y162.505 E14.30639
G1 X32.714 Y162.093 E14.32363
G1 X32.15 Y161.282 E14.35649
G1 X31.733 Y160.622 E14.38246
G1 X31.286 Y159.837 E14.4125
G1 X30.923 Y159.063 E14.44094
G1 X30.606 Y158.308 E14.46817
G1 X30.272 Y157.403 E14.50026
G1 X30.09 Y156.763 E14.52239
G1 X29.915 Y156.069 E14.54619
G1 X29.732 Y155.185 E14.57622
G1 X29.594 Y154.08 E14.61325
G1 X29.528 Y153.102 E14.64586
G1 X29.5 Y151.641 E14.69446
G1 X29.507 Y82.709 E16.98715
G1 X29.519 Y81.975 E17.01156
G1 X29.581 Y80.97 E17.04505
G1 X29.632 Y80.506 E17.06058
G1 X29.872 Y79.134 E17.1069
G1 X30.055 Y78.381 E17.13268
G1 X30.321 Y77.461 E17.16453
G1 X30.504 Y76.963 E17.18218
G1 X30.708 Y76.444 E17.20072
G1 X31.109 Y75.553 E17.23322
G1 X31.419 Y74.94 E17.25607
G1 X32.065 Y73.833 E17.2987
G1 X32.299 Y73.484 E17.31267
G1 X32.836 Y72.748 E17.34298
G1 X33.213 Y72.276 E17.36307
G1 X34.006 Y71.389 E17.40264
G1 X34.44 Y70.955 E17.42306
G1 X35.152 Y70.304 E17.45514
G1 X35.912 Y69.71 E17.48723
G1 X36.734 Y69.138 E17.52053
G1 X37.384 Y68.73 E17.54606
G1 X38.169 Y68.284 E17.57609
G0 F6000 X38.367 Y68.632
G1 F1200 X39.063 Y68.305 E17.60166
G1 X39.745 Y68.015 E17.62631
G1 X41.036 Y67.562 E17.67182
G1 X41.51 Y67.429 E17.68819
G1 X42.261 Y67.245 E17.71391
G1 X43.617 Y67.025 E17.7596
G1 X44.247 Y66.965 E17.78065
G1 X44.985 Y66.921 E17.80524
G1 X45.986 Y66.9 E17.83854
G1 X188.796 Y66.9 E22.58842
G1 X189.893 Y66.914 E22.62491
G1 X190.667 Y66.951 E22.65068
G1 X191.301 Y67.012 E22.67187
G1 X191.779 Y67.073 E22.68789
G1 X192.7 Y67.232 E22.71898
G1 X193.722 Y67.492 E22.75405
G1 X194.903 Y67.88 E22.7954
G1 X195.394 Y68.074 E22.81296
G1 X196.26 Y68.463 E22.84453
G1 X196.864 Y68.768 E22.86704
G1 X197.956 Y69.405 E22.90909
G1 X198.286 Y69.626 E22.9223
G1 X198.988 Y70.139 E22.95122
G1 X199.456 Y70.512 E22.97112
G1 X200.096 Y71.065 E22.99925
G1 X200.612 Y71.567 E23.0232
G1 X200.881 Y71.844 E23.03604
G1 X201.64 Y72.722 E23.07464
G1 X201.949 Y73.124 E23.0915
G1 X202.502 Y73.917 E23.12366
G1 X202.913 Y74.569 E23.14929
G1 X203.376 Y75.383 E23.18044
G1 X203.703 Y76.083 E23.20614
G1 X204.014 Y76.819 E23.23271
G1 X204.328 Y77.665 E23.26273
G1 X204.516 Y78.311 E23.2851
G1 X204.683 Y78.966 E23.30759
G1 X204.938 Y80.341 E23.3541
G1 X204.998 Y80.852 E23.37121
G1 X205.067 Y81.859 E23.40478
G1 X205.094 Y83.293 E23.45249
G1 X205.099 Y151.946 E25.7359
G1 X205.086 Y152.835 E25.76547
G1 X205.061 Y153.402 E25.78434
G1 X205.026 Y153.906 E25.80115
G1 X204.837 Y155.296 E25.8478
G1 X204.728 Y155.826 E25.8658
G1 X204.587 Y156.424 E25.88624
G1 X204.487 Y156.799 E25.89914
G1 X204.104 Y157.951 E25.93952
G1 X203.916 Y158.422 E25.95639
G1 X203.544 Y159.246 E25.98646
G1 X203.232 Y159.864 E26.00949
G1 X202.551 Y161.02 E26.05411
G1 X202.23 Y161.492 E26.07309
G1 X201.643 Y162.275 E26.10564
G1 X201.423 Y162.542 E26.11715
G1 X201.015 Y163.007 E26.13773
G1 X200.749 Y163.292 E26.15069
G1 X200.168 Y163.872 E26.178
G1 X199.253 Y164.66 E26.21816
G1 X198.847 Y164.971 E26.23517
G1 X198.041 Y165.532 E26.26783
G1 X197.425 Y165.918 E26.29201
G1 X196.612 Y166.378 E26.32308
G1 X195.959 Y166.684 E26.34706
G1 X195.215 Y167.001 E26.37396
G1 X194.339 Y167.328 E26.40506
G1 X193.431 Y167.587 E26.43647
G1 X192.519 Y167.793 E26.46756
G1 X191.945 Y167.895 E26.48695
G1 X190.859 Y168.03 E26.52335
G1 X190.18 Y168.072 E26.54598
G1 X189.303 Y168.097 E26.57516
G1 X45.707 Y168.093 E31.35118
G1 X45.004 Y168.082 E31.37457
G1 X44.037 Y168.023 E31.40679
G1 X43.584 Y167.974 E31.42194
G1 X42.657 Y167.831 E31.45314
G1 X42.313 Y167.763 E31.4648
G1 X41.653 Y167.609 E31.48735
G1 X41.23 Y167.496 E31.50191
G1 X40.096 Y167.12 E31.54164
G1 X39.483 Y166.877 E31.56358
G1 X38.416 Y166.383 E31.60268
G1 X37.86 Y166.086 E31.62365
G1 X36.762 Y165.41 E31.66654
G1 X36.34 Y165.113 E31.6837
G1 X35.692 Y164.616 E31.71086
G1 X35.39 Y164.366 E31.7239
G1 X34.903 Y163.936 E31.74551
G1 X34.359 Y163.406 E31.77077
G1 X34.103 Y163.139 E31.78307
G1 X33.346 Y162.261 E31.82163
G1 X33.042 Y161.865 E31.83823
G1 X32.488 Y161.069 E31.87049
G1 X32.081 Y160.424 E31.89586
G1 X31.634 Y159.639 E31.9259
G1 X31.292 Y158.908 E31.95275
G1 X30.981 Y158.169 E31.97941
G1 X30.657 Y157.293 E32.01048
G1 X30.478 Y156.665 E32.0322
G1 X30.307 Y155.988 E32.05542
G1 X30.124 Y155.104 E32.08545
G1 X29.993 Y154.053 E32.12067
G1 X29.928 Y153.094 E32.15264
G1 X29.9 Y151.641 E32.20098
G1 X29.907 Y82.715 E34.49347
G1 X29.918 Y82 E34.51725
G1 X29.979 Y81.014 E34.55011
G1 X30.03 Y80.55 E34.56563
G1 X30.261 Y79.228 E34.61027
G1 X30.439 Y78.492 E34.63545
G1 X30.697 Y77.598 E34.6664
G1 X30.876 Y77.109 E34.68372
G1 X31.073 Y76.608 E34.70163
G1 X31.466 Y75.733 E34.73353
G1 X31.765 Y75.141 E34.75559
G1 X32.398 Y74.055 E34.7974
G1 X32.622 Y73.72 E34.8108
G1 X33.149 Y72.998 E34.84053
G1 X33.526 Y72.526 E34.86062
G1 X34.289 Y71.672 E34.89871
G1 X34.71 Y71.25 E34.91854
G1 X35.399 Y70.619 E34.94961
G1 X36.141 Y70.038 E34.98096
G1 X36.947 Y69.477 E35.01362
G1 X37.582 Y69.078 E35.03856
G1 X38.367 Y68.632 E35.06859
G0 F6000 X38.565 Y68.98
G1 F1200 X39.22 Y68.673 E35.09265
G1 X39.902 Y68.383 E35.1173
G1 X41.144 Y67.947 E35.16108
G1 X41.605 Y67.818 E35.177
G1 X42.356 Y67.634 E35.20272
G1 X43.681 Y67.42 E35.24736
G1 X44.271 Y67.364 E35.26707
G1 X44.993 Y67.321 E35.29113
G1 X45.994 Y67.3 E35.32443
G1 X188.791 Y67.3 E40.07388
G1 X189.874 Y67.314 E40.1099
G1 X190.648 Y67.351 E40.13567
G1 X191.251 Y67.409 E40.15582
G1 X191.711 Y67.467 E40.17124
G1 X192.601 Y67.62 E40.20128
G1 X193.623 Y67.88 E40.23635
G1 X194.756 Y68.252 E40.27602
G1 X195.23 Y68.439 E40.29296
G1 X196.08 Y68.82 E40.32395
G1 X196.663 Y69.114 E40.34566
G1 X197.734 Y69.738 E40.38689
G1 X198.05 Y69.949 E40.39953
G1 X198.739 Y70.452 E40.4279
G1 X199.195 Y70.815 E40.44729
G1 X199.817 Y71.352 E40.47462
G1 X200.325 Y71.845 E40.49816
G1 X200.578 Y72.106 E40.51025
G1 X201.337 Y72.984 E40.54885
G1 X201.621 Y73.353 E40.56434
G1 X202.164 Y74.13 E40.59587
G1 X202.566 Y74.767 E40.62092
G1 X203.014 Y75.552 E40.65098
G1 X203.335 Y76.239 E40.6762
G1 X203.639 Y76.958 E40.70217
G1 X203.953 Y77.804 E40.73218
G1 X204.128 Y78.41 E40.75316
G1 X204.295 Y79.065 E40.77564
G1 X204.541 Y80.388 E40.8204
G1 X204.599 Y80.879 E40.83685
G1 X204.667 Y81.867 E40.86978
G1 X204.694 Y83.293 E40.91722
G1 X204.699 Y151.94 E43.20043
G1 X204.686 Y152.818 E43.22964
G1 X204.662 Y153.374 E43.24815
G1 X204.627 Y153.878 E43.26495
G1 X204.445 Y155.216 E43.30986
G1 X204.339 Y155.734 E43.32745
G1 X204.201 Y156.321 E43.3475
G1 X204.107 Y156.673 E43.35962
G1 X203.724 Y157.825 E43.4
G1 X203.551 Y158.258 E43.41551
G1 X203.187 Y159.066 E43.44498
G1 X202.887 Y159.661 E43.46714
G1 X202.22 Y160.795 E43.5109
G1 X201.91 Y161.252 E43.52927
G1 X201.335 Y162.02 E43.56118
G1 X201.122 Y162.278 E43.57231
G1 X200.722 Y162.734 E43.59248
G1 X200.466 Y163.009 E43.60498
G1 X199.885 Y163.589 E43.63228
G1 X199.01 Y164.342 E43.67068
G1 X198.604 Y164.653 E43.68769
G1 X197.828 Y165.193 E43.71913
G1 X197.228 Y165.57 E43.7427
G1 X196.442 Y166.016 E43.77276
G1 X195.802 Y166.316 E43.79627
G1 X195.075 Y166.626 E43.82255
G1 X194.229 Y166.943 E43.8526
G1 X193.321 Y167.202 E43.88401
G1 X192.448 Y167.399 E43.91377
G1 X191.896 Y167.498 E43.93243
G1 X190.81 Y167.633 E43.96883
G1 X190.168 Y167.672 E43.99022
G1 X189.303 Y167.697 E44.019
G1 X45.713 Y167.693 E48.79482
G1 X45.028 Y167.683 E48.81761
G1 X44.08 Y167.625 E48.8492
G1 X43.627 Y167.576 E48.86435
G1 X42.735 Y167.439 E48.89437
G1 X42.403 Y167.373 E48.90563
G1 X41.756 Y167.223 E48.92772
G1 X41.356 Y167.116 E48.94149
G1 X40.243 Y166.748 E48.98048
G1 X39.651 Y166.514 E49.00165
G1 X38.604 Y166.03 E49.04001
G1 X38.069 Y165.745 E49.06018
G1 X36.992 Y165.083 E49.10222
G1 X36.583 Y164.795 E49.11886
G1 X35.947 Y164.308 E49.1455
G1 X35.655 Y164.066 E49.15812
G1 X35.168 Y163.636 E49.17973
G1 X34.647 Y163.128 E49.20393
G1 X34.406 Y162.878 E49.21548
G1 X33.663 Y162.017 E49.2533
G1 X33.37 Y161.636 E49.26929
G1 X32.826 Y160.856 E49.30092
G1 X32.429 Y160.226 E49.32569
G1 X31.982 Y159.441 E49.35573
G1 X31.661 Y158.753 E49.38098
G1 X31.356 Y158.03 E49.40708
G1 X31.042 Y157.183 E49.43713
G1 X30.866 Y156.567 E49.45843
G1 X30.699 Y155.907 E49.48108
G1 X30.516 Y155.023 E49.5111
G1 X30.392 Y154.026 E49.54452
G1 X30.328 Y153.086 E49.57586
G1 X30.3 Y151.641 E49.62393
G1 X30.307 Y82.721 E51.91621
G1 X30.317 Y82.025 E51.93937
G1 X30.377 Y81.058 E51.97159
G1 X30.428 Y80.594 E51.98712
G1 X30.65 Y79.322 E52.03006
G1 X30.823 Y78.603 E52.05466
G1 X31.073 Y77.735 E52.0847
G1 X31.248 Y77.255 E52.10169
G1 X31.438 Y76.772 E52.11896
G1 X31.823 Y75.913 E52.15027
G1 X32.111 Y75.342 E52.17154
G1 X32.731 Y74.277 E52.21252
G1 X32.945 Y73.956 E52.22536
G1 X33.462 Y73.248 E52.25451
G1 X33.839 Y72.776 E52.27461
G1 X34.587 Y71.939 E52.31194
G1 X34.98 Y71.545 E52.33045
G1 X35.646 Y70.934 E52.36051
G1 X36.388 Y70.353 E52.39186
G1 X37.16 Y69.816 E52.42313
G1 X37.78 Y69.426 E52.4475
G1 X38.565 Y68.98 E52.47752
G1 F2700 E47.47752
;MESH:Pendulo_invertido_chasis.stl
G0 F6000 X75.727 Y85.659
G0 X77.849 Y87.348
;TYPE:WALL-INNER
G1 F2700 E52.47752
G1 F1200 X77.329 Y87.244 E52.49516
G1 X76.739 Y86.957 E52.51698
G1 X76.35 Y86.55 E52.53571
G1 X76.122 Y86.191 E52.54985
G1 X75.907 Y85.625 E52.56999
G1 X75.907 Y84.872 E52.59504
G1 X76.153 Y84.242 E52.61753
G1 X76.444 Y83.829 E52.63434
G1 X76.772 Y83.536 E52.64896
G1 X77.218 Y83.291 E52.66589
G1 X77.632 Y83.18 E52.68014
G1 X78.161 Y83.149 E52.69777
G1 X78.664 Y83.25 E52.71483
G1 X79.277 Y83.545 E52.73746
G1 X79.69 Y83.993 E52.75773
G1 X79.971 Y84.523 E52.77768
G1 X80.089 Y85.036 E52.79519
G1 X80.093 Y85.613 E52.81438
G1 X79.876 Y86.187 E52.83479
G1 X79.611 Y86.62 E52.85167
G1 X79.217 Y86.959 E52.86896
G1 X78.697 Y87.232 E52.88849
G1 X78.362 Y87.316 E52.89998
G1 X77.849 Y87.348 E52.91708
G1 F2700 E47.91708
G0 F6000 X78.177 Y147.47
G0 X77.835 Y151.847
G1 F2700 E52.91708
G1 F1200 X77.331 Y151.746 E52.93417
G1 X76.726 Y151.452 E52.95655
G1 X76.322 Y151.02 E52.97622
G1 X76.104 Y150.662 E52.99016
G1 X75.907 Y150.113 E53.00956
G1 X75.906 Y149.361 E53.03457
G1 X76.156 Y148.739 E53.05687
G1 X76.445 Y148.329 E53.07355
G1 X76.77 Y148.042 E53.08797
G1 X77.215 Y147.792 E53.10495
G1 X77.642 Y147.676 E53.11966
G1 X78.14 Y147.652 E53.13625
G1 X78.668 Y147.752 E53.15412
G1 X79.279 Y148.047 E53.17669
G1 X79.688 Y148.493 E53.19681
G1 X79.973 Y149.015 E53.2166
G1 X80.091 Y149.551 E53.23485
G1 X80.089 Y150.126 E53.25397
G1 X79.891 Y150.663 E53.27301
G1 X79.605 Y151.126 E53.29111
G1 X79.217 Y151.464 E53.30823
G1 X78.694 Y151.734 E53.3278
G1 X78.364 Y151.816 E53.33911
G1 X77.835 Y151.847 E53.35674
G1 F2700 E48.35674
G0 F6000 X79.318 Y151.616
G0 X79.316 Y156.713
G0 X117.5 Y156.896
G1 F2700 E53.35674
G1 F1200 X189.475 Y156.9 E55.75064
G1 X189.936 Y156.874 E55.76599
G1 X190.448 Y156.799 E55.7832
G1 X190.971 Y156.641 E55.80137
G1 X191.491 Y156.429 E55.82005
G1 X191.934 Y156.164 E55.83722
G1 X192.374 Y155.836 E55.85547
G1 X192.762 Y155.448 E55.87373
G1 X193.036 Y155.114 E55.88809
G1 X193.263 Y154.772 E55.90175
G1 X193.481 Y154.362 E55.91719
G1 X193.68 Y153.886 E55.93435
G1 X193.814 Y153.352 E55.95266
G1 X193.874 Y152.936 E55.96664
G1 X193.9 Y152.475 E55.982
G1 X193.892 Y82.277 E58.31679
G1 X193.853 Y81.868 E58.33046
G1 X193.765 Y81.432 E58.34525
G1 X193.634 Y81.004 E58.36014
G1 X193.434 Y80.522 E58.3775
G1 X193.159 Y80.058 E58.39544
G1 X192.836 Y79.625 E58.4134
G1 X192.448 Y79.234 E58.43172
G1 X192.114 Y78.963 E58.44603
G1 X191.77 Y78.732 E58.45981
G1 X191.362 Y78.515 E58.47518
G1 X190.885 Y78.315 E58.49239
G1 X190.355 Y78.182 E58.51056
G1 X189.942 Y78.122 E58.52444
G1 X189.477 Y78.1 E58.53992
G1 X45.286 Y78.104 E63.33574
G1 X44.86 Y78.147 E63.34998
G1 X44.429 Y78.232 E63.36459
G1 X44.008 Y78.358 E63.3792
G1 X43.524 Y78.561 E63.39666
G1 X43.058 Y78.84 E63.41473
G1 X42.625 Y79.16 E63.43263
G1 X42.235 Y79.551 E63.451
G1 X41.962 Y79.887 E63.4654
G1 X41.735 Y80.219 E63.47878
G1 X41.516 Y80.633 E63.49435
G1 X41.315 Y81.114 E63.51169
G1 X41.182 Y81.646 E63.52993
G1 X41.104 Y82.173 E63.54765
G1 X41.1 Y152.66 E65.89206
